!!!OTL: Xindian shige haodifang
!!!ARE: Asia, China,ÿJiangsu Rugao
!! III, 432
!!!SCT: C1783
!!!YEM: Copyright 1995, estate of Helmut Schaffrath.
**kern
*ICvox
*Ivox
*M2/4
*k[b-e-a-]
*E-:
{8ee-
8ff
16gg
16bb-
[8gg
=1
2gg_
=2
2gg]
=3
4.ee-
8r}
=4
{16gg
16ff
8gg
8ee-
8ff
=5
[2gg
=6
2gg]
=7
8.ee-
16ff
4gg
=8
[2ee-
=9
2ee-]}
=10
{8ee-
8ff
16bb-
16bb-
[8gg
=11
2gg_
=12
2gg]
=13
4.ee-
8r}
=14
{16gg
16ff
8gg
8ee-
8ff
=15
2gg
=16
[2ee-
=17
2ee-]}
=18
{8ee-
8ff
16bb-
16bb-
[8gg
=19
2gg_
=20
4gg]
16ff
8.ee-}
=21
{16gg
16ff
8gg
8ee-
16ff
16gg
=22
[2cc
=23
8.cc]
16r
16ff
32gg
32ff
16ee-
16ff
=24
2gg}
=25
{16gg
16gg
16gg
16gg
4ee-
=26
16gg
16ff
8gg
16ee-
16ff
8gg
=27
[2ee-
=28
2ee-]}
==
!!!AGN: Shange, Haocao shange
!! Freely
!!!AMT: simple duple
!!!AIN: vox
!!!EED: Helmut Schaffrath
!!!EEV: 1.0
*-
!!!ONB: Tied note syntax fixed by Craig Sapp, 2004/05/03/
